assets/icons/18px/outline/film-18px.svg

<svg width="18" height="18" viewBox="0 0 18 18" fill="none" xmlns="http://www.w3.org/2000/svg">
<path d="M2.5 5.5C2.5 4.55719 2.5 4.08579 2.79289 3.79289C3.08579 3.5 3.55719 3.5 4.5 3.5H13.5C14.4428 3.5 14.9142 3.5 15.2071 3.79289C15.5 4.08579 15.5 4.55719 15.5 5.5V12.5C15.5 13.4428 15.5 13.9142 15.2071 14.2071C14.9142 14.5 14.4428 14.5 13.5 14.5H4.5C3.55719 14.5 3.08579 14.5 2.79289 14.2071C2.5 13.9142 2.5 13.4428 2.5 12.5V5.5Z" stroke="white" stroke-linecap="round" stroke-linejoin="round"/>
<path d="M5.5 3.5V7M5.5 14V9M12.5 3.5V7M12.5 14V11M2.25 7H5.5M5.5 7V9M5.5 9H12.5M12.5 9V7M12.5 9V11M2.25 11H5.5M12.5 11H15.75M12.5 7H15.75" stroke="white"/>
</svg>

<svg width="18" height="18" fill="none" xmlns="http://www.w3.org/2000/svg"><path d="M2.5 5.5c0-.943 0-1.414.293-1.707C3.086 3.5 3.557 3.5 4.5 3.5h9c.943 0 1.414 0 1.707.293.293.293.293.764.293 1.707v7c0 .943 0 1.414-.293 1.707-.293.293-.764.293-1.707.293h-9c-.943 0-1.414 0-1.707-.293-.293-.293-.293-.764-.293-1.707v-7z" stroke="#fff" stroke-linecap="round" stroke-linejoin="round"/><path d="M5.5 3.5V7m0 7V9m7-5.5V7m0 7v-3M2.25 7H5.5m0 0v2m0 0h7m0 0V7m0 2v2M2.25 11H5.5m7 0h3.25M12.5 7h3.25" stroke="#fff"/></svg>
